X: 307
P: Longways for as many as will
M: C|
L: 1/4
K: G
g |\
g2 fe | d2 cB | cB AG | d2 cB |\
e2 fg | f2 fg | a2 A2 | d2 cB |\
gf ed | dc Bc | d2 D2 | G6 |]

